X: 19223
T: Israel Got A Rabbit
R: polka
M: 2/4
K: Gmajor
|:G>G GF|ED DE/F/|GB EF|GD DE/F/|
GD GF|ED DE/F/|GB EF|1 GD DE/F/:|2 GA Bc/d/||
|:cA AG/A/|BG GA/B/|AE EF|GA Bc/d/|
cA AG/A/|BG GA/B/|AE EF|1 GA Bc/d/:|2 GD DE/F/||

